images/d-mouse-hover.svg

<svg fill="none" height="103" viewBox="0 0 144 103" width="144" xmlns="http://www.w3.org/2000/svg"><path clip-rule="evenodd" d="m11.9286.797363 131.3664 35.199437-5.436 20.2844-.074.2786-5.62 20.9718-7.727-2.0706-3.882 14.4889-10.626-2.847-2.847 10.6252-15.4544-4.1411-2.0705 7.727-.0697.26-14.4889-3.8819-1.2244 4.5699-34.7734-9.3178 1.2941-4.8296-14.4888-3.8823 2.0705-7.7274-15.4548-4.1411 2.847-10.6252-10.62518-2.847 3.88229-14.4889-7.727409-2.0705 5.619359-20.9718.07466-.2786zm69.6804 68.364037-2.0656 7.7089-10.6252-2.8471-.0049.0186-17.3867-4.6587 2.0706-7.7274-15.4549-4.1411 3.1059-11.5911-13.523-3.6235 3.8076-14.2103 30.9097 8.2822-5.6194 20.9718 25.1141 6.7293 5.6193-20.9718 25.1145 6.7293-3.808 14.2103-13.523-3.6235-3.1058 11.5911z" fill="#ff512f" fill-rule="evenodd"/></svg>

<svg width="144" height="103" viewBox="0 0 144 103" fill="none" xmlns="http://www.w3.org/2000/svg">
<path fill-rule="evenodd" clip-rule="evenodd" d="M11.9286 0.797363L143.295 35.9968L137.859 56.2812L137.785 56.5598L132.165 77.5316L124.438 75.461L120.556 89.9499L109.93 87.1029L107.083 97.7281L91.6286 93.587L89.5581 101.314L89.4884 101.574L74.9995 97.6921L73.7751 102.262L39.0017 92.9442L40.2958 88.1146L25.807 84.2323L27.8775 76.5049L12.4227 72.3638L15.2697 61.7386L4.64452 58.8916L8.52681 44.4027L0.799401 42.3322L6.41876 21.3604L6.49342 21.0818L11.9286 0.797363ZM81.609 69.1614L79.5434 76.8703L68.9182 74.0232L68.9133 74.0418L51.5266 69.3831L53.5972 61.6557L38.1423 57.5146L41.2482 45.9235L27.7252 42.3L31.5328 28.0897L62.4425 36.3719L56.8231 57.3437L81.9372 64.073L87.5565 43.1012L112.671 49.8305L108.863 64.0408L95.34 60.4173L92.2342 72.0084L81.609 69.1614Z" fill="#FF512F"/>
</svg>
